vendor/shopware/storefront/Resources/app/storefront/dist/assets/icon/default/star-half.svg

<svg xmlns="http://www.w3.org/2000/svg" width="24" height="24" viewBox="0 0 24 24">
    <path fill="#758CA3" fill-rule="evenodd" d="M7.45244675,6.89518754 L1.85772473,8.1067047 C1.51965952,8.17991152 1.20635992,8.33954564 0.948424617,8.57001625 C0.124756335,9.30598115 0.0536586991,10.5703137 0.789623603,11.3939819 L4.57593077,15.6314953 L4.00349179,21.2852512 C3.96864772,21.6293924 4.02365389,21.9766877 4.16313807,22.2932181 C4.60855479,23.3039988 5.78903608,23.7623169 6.79981683,23.3169002 L12.403214,20.8476736 C12.9086043,20.6249652 13.1377634,20.0347246 12.915055,19.5293342 C12.6923467,19.0239438 12.102106,18.7947848 11.5967156,19.0174931 L5.99331852,21.4867198 L6.65453787,14.9561149 L2.28100696,10.0613996 L8.65552196,8.68102104 L12.8262552,2.56329642 C13.137355,2.10696829 13.0196241,1.48484504 12.563296,1.17374524 C12.1069679,0.862645442 11.4848446,0.980376268 11.1737448,1.4367044 L7.45244675,6.89518754 Z"/>
</svg>

<svg xmlns="http://www.w3.org/2000/svg" width="24" height="24" viewBox="0 0 24 24"><path fill="#758CA3" fill-rule="evenodd" d="M7.4524 6.8952 1.8577 8.1067a2 2 0 0 0-.9093.4633c-.8236.736-.8947 2.0003-.1588 2.824l3.7863 4.2375-.5724 5.6538a2 2 0 0 0 .1596 1.008c.4455 1.0107 1.626 1.469 2.6367 1.0236l5.6034-2.4692c.5054-.2227.7346-.813.5119-1.3184-.2228-.5054-.813-.7345-1.3184-.5118l-5.6034 2.4692.6612-6.5306-4.3735-4.8947L8.6555 8.681l4.1708-6.1177c.311-.4563.1933-1.0785-.263-1.3896-.4563-.311-1.0785-.1933-1.3896.263L7.4524 6.8952z"/></svg>
